svg/black/gin.svg

<?xml version="1.0" encoding="UTF-8"?>
<svg width="32px" height="32px" viewBox="0 0 32 32" version="1.1" xmlns="http://www.w3.org/2000/svg" xmlns:xlink="http://www.w3.org/1999/xlink">
    <!-- Generator: Sketch 53 (72520) - https://sketchapp.com -->
    <title>svg/black/gin</title>
    <desc>Created with Sketch.</desc>
    <g id="black/gin" stroke="none" stroke-width="1" fill="none" fill-rule="evenodd">
        <path d="M16,32 C7.163444,32 0,24.836556 0,16 C0,7.163444 7.163444,0 16,0 C24.836556,0 32,7.163444 32,16 C32,24.836556 24.836556,32 16,32 Z M24.0285899,17.3262545 C24.4299059,17.3262545 24.7552212,17.0009392 24.7552212,16.5996232 C24.7552212,16.1983072 24.4299059,15.8729919 24.0285899,15.8729919 L22.3698747,15.8729919 L22.3698747,14.2312585 L25.8403406,14.2312585 C26.2416567,14.2312585 26.566972,13.9059432 26.566972,13.5046272 C26.566972,13.1033112 26.2416567,12.7779959 25.8403406,12.7779959 L22.3551509,12.7779959 C22.212986,11.1715563 20.9907878,9.87140869 19.421034,9.61003051 L19.421034,7.860962 C19.421034,7.45964597 19.0957187,7.13433067 18.6944027,7.13433067 C18.2930866,7.13433067 17.9677713,7.45964597 17.9677713,7.860962 L17.9677713,9.56128116 L16.3261308,9.56128116 L16.3261308,5.73988803 C16.3261308,5.338572 16.0008464,5.0132567 15.5995304,5.0132567 C15.1982144,5.0132567 14.8728681,5.338572 14.8728681,5.73988803 L14.8728681,9.56128116 L13.2312895,9.56128116 L13.2312895,7.860962 C13.2312585,7.45964597 12.9059432,7.13433067 12.5046272,7.13433067 C12.1033112,7.13433067 11.7779959,7.45964597 11.7779959,7.860962 L11.7779959,9.60999958 C10.2082111,9.87137776 8.98598203,11.1715254 8.84387892,12.7779649 L4.74010455,12.7779649 C4.33878852,12.7779649 4.01347323,13.1032802 4.01347323,13.5045963 C4.01347323,13.9059123 4.33878852,14.2312276 4.74010455,14.2312276 L8.82921699,14.2312276 L8.82921699,15.8729609 L7.17050181,15.8729609 C6.76918578,15.8729609 6.44387048,16.1982762 6.44387048,16.5995923 C6.44387048,17.0009083 6.76918578,17.3262236 7.17050181,17.3262236 L8.82921699,17.3262236 L8.82921699,18.967926 L5.66807441,18.967926 C5.26675838,18.967926 4.94144308,19.2932413 4.94144308,19.6945573 C4.94144308,20.0958734 5.26675838,20.4211886 5.66807441,20.4211886 L8.84394078,20.4211886 C8.9860439,22.0275663 10.2083039,23.3277449 11.7780577,23.5890612 L11.7780577,24.7196069 C11.7780577,25.1209229 12.103373,25.4462382 12.5046891,25.4462382 C12.9060051,25.4462382 13.2313204,25.1209229 13.2313204,24.7196069 L13.2313204,23.6377796 L14.8728991,23.6377796 L14.8728991,26.9290589 C14.8728991,27.3303749 15.1982453,27.6556902 15.5995613,27.6556902 C16.0008774,27.6556902 16.3261927,27.3303749 16.3261927,26.9290589 L16.3261927,23.6377796 L17.9678332,23.6377796 L17.9678332,25.3382535 C17.9678332,25.7395695 18.2931485,26.0648848 18.6944645,26.0648848 C19.0957806,26.0648848 19.4210959,25.7395695 19.4210959,25.3382535 L19.4210959,23.5891849 C20.9908806,23.3278686 22.2130788,22.027721 22.3552128,20.4213124 L27.1660736,20.4213124 C27.5673897,20.4213124 27.892705,20.0959971 27.892705,19.694681 C27.892705,19.293365 27.5673897,18.9680497 27.1660736,18.9680497 L22.3699366,18.9680497 L22.3699366,17.3263473 L24.0285899,17.3263473 L24.0285899,17.3262545 Z M21.2092628,20.1077514 C21.2092628,21.4142711 20.1463043,22.4772296 18.8396299,22.4772296 L12.3594308,22.4772296 C11.0528184,22.4772296 9.98985982,21.4143329 9.98985982,20.1077514 L9.98985982,13.0913713 C9.98985982,11.7847897 11.0528184,10.7218312 12.3594308,10.7218312 L18.8396299,10.7218312 C20.1462424,10.7218312 21.2092628,11.7847897 21.2092628,13.0913713 L21.2092628,20.1077514 Z M13.900963,12.4345034 C13.6198592,12.4329715 13.3389494,12.4370566 13.059523,12.4638498 C12.6184975,12.5135247 12.2928507,12.9143349 12.27902,13.348449 C12.2569605,14.3323111 12.2752413,15.3175009 12.2692924,16.3018864 C12.2829264,16.8041988 12.2354907,17.3111936 12.3083741,17.8092039 C12.3799783,18.2530813 12.8138753,18.5382345 13.2449562,18.5377239 C14.5846668,18.5469153 15.9247094,18.5411451 17.2645911,18.5421919 L17.2645911,19.0970081 L12.9508847,19.0970081 C12.7658702,19.6520362 12.5809451,20.2070796 12.3959383,20.7621077 L16.6895026,20.7621077 C17.1918175,20.7484992 17.6988073,20.7960243 18.19682,20.7231536 C18.6406949,20.6515494 18.9258532,20.2176549 18.9253426,19.7865766 C18.9354022,18.0338056 18.9266192,16.2806056 18.9296575,14.5276864 C18.9139043,14.0566532 18.9710983,13.5783026 18.8764949,13.1141988 C18.7748396,12.6408856 18.2678626,12.4083281 17.8196371,12.4367375 L14.7440753,12.4367375 C14.4634107,12.4424056 14.1820311,12.4357162 13.9009324,12.4344396 L13.900963,12.4345034 Z M13.9343868,14.1018422 L17.2645885,14.1018422 L17.2645885,16.8769673 L13.9343868,16.8769673 L13.9343868,14.1018422 Z" id="Combined-Shape" fill="#000000" fill-rule="nonzero"></path>
    </g>
</svg>

<svg width="32" height="32" viewBox="0 0 32 32" xmlns="http://www.w3.org/2000/svg"><path d="M16 32C7.163 32 0 24.837 0 16S7.163 0 16 0s16 7.163 16 16-7.163 16-16 16zm8.029-14.674a.727.727 0 1 0 0-1.453h-1.66v-1.642h3.471a.727.727 0 1 0 0-1.453h-3.485a3.536 3.536 0 0 0-2.934-3.168V7.861a.727.727 0 1 0-1.453 0v1.7h-1.642V5.74a.727.727 0 1 0-1.453 0v3.82H13.23v-1.7a.727.727 0 0 0-1.453 0v1.75a3.536 3.536 0 0 0-2.934 3.168H4.74a.727.727 0 1 0 0 1.453h4.09v1.642H7.17a.727.727 0 1 0 0 1.453h1.66v1.642H5.667a.727.727 0 1 0 0 1.453h3.176a3.536 3.536 0 0 0 2.934 3.168v1.13a.727.727 0 1 0 1.453 0v-1.081h1.642v3.291a.727.727 0 0 0 1.453 0v-3.291h1.642v1.7a.727.727 0 1 0 1.453 0V23.59a3.536 3.536 0 0 0 2.934-3.168h4.811a.727.727 0 1 0 0-1.453H22.37v-1.642h1.659zm-2.82 2.782a2.372 2.372 0 0 1-2.37 2.37h-6.48a2.372 2.372 0 0 1-2.37-2.37V13.09a2.372 2.372 0 0 1 2.37-2.37h6.48a2.372 2.372 0 0 1 2.37 2.37v7.017zm-7.308-7.673a8.335 8.335 0 0 0-.841.029c-.442.05-.767.45-.781.884-.022.984-.004 1.97-.01 2.954.014.502-.034 1.01.04 1.507.071.444.505.73.936.729 1.34.009 2.68.003 4.02.004v.555H12.95l-.555 1.665h4.294c.502-.014 1.009.034 1.507-.039.444-.071.729-.505.728-.936.01-1.753.002-3.506.005-5.26-.016-.47.041-.949-.054-1.413-.101-.473-.608-.706-1.056-.677h-3.076c-.28.005-.562-.001-.843-.003zm.033 1.667h3.33v2.775h-3.33v-2.775z"/></svg>
